app/style/icons/tutorials/decredIntro/thumb.svg

<svg fill="none" version="1.1" viewBox="0 0 92 92" xmlns="http://www.w3.org/2000/svg">
 <rect width="92" height="92" fill="#2970FF"/>
 <path d="m48.415 15.023v61.497h-4.9418c-12.972 0-23.473-13.773-23.473-30.749 0-16.976 10.501-30.748 23.473-30.748h4.9418z" fill="#fff"/>
 <g fill="#C4CBD2">
  <path d="m23.797 62.496c0.366 0.755 0.7778 1.4871 1.1896 2.1963h23.428v-2.1963h-24.617z"/>
  <path d="m21.487 56.456c0.2059 0.755 0.4347 1.4871 0.7092 2.1963h26.242v-2.1963h-26.951z"/>
  <path d="m20.274 50.416c0.0915 0.7322 0.1831 1.4643 0.3203 2.1964h27.82v-2.1964h-28.14z"/>
  <path d="m48.415 75.399v-2.1963h-15.512c1.3727 0.9151 2.8369 1.6473 4.3469 2.1963h11.165z"/>
  <path d="m27.733 68.535c0.6634 0.7778 1.3498 1.51 2.0819 2.1963h18.623v-2.1963h-20.705z"/>
  <path d="m22.379 32.319c-0.2745 0.7092-0.5033 1.4413-0.7321 2.1963h26.791v-2.1963h-26.058z"/>
  <path d="m39.057 15.572c-1.8532 0.4575-3.6148 1.2125-5.2849 2.1963h14.642v-2.1963h-9.3572z"/>
  <path d="m30.41 20.239c-0.7779 0.6863-1.51 1.4184-2.1964 2.1963h20.224v-2.1963h-18.028z"/>
  <path d="m20.709 38.336c-0.1373 0.7321-0.2517 1.4642-0.3432 2.1963h28.072v-2.1963h-27.729z"/>
  <path d="m25.331 26.279c-0.4347 0.7092-0.8694 1.4413-1.2583 2.1963h24.343v-2.1963h-23.084z"/>
  <path d="m20.046 44.376c-0.0228 0.4576-0.0229 0.9152-0.0229 1.3727v0.8237h28.392v-2.1964h-28.369z"/>
 </g>
 <path d="m48.552 76.497c12.964 0 23.473-13.767 23.473-30.748 0-16.982-10.509-30.749-23.473-30.749-12.964 0-23.473 13.767-23.473 30.749 0 16.982 10.509 30.748 23.473 30.748z" fill="#fff"/>
 <g id="FAVOCONS" transform="matrix(.35809 0 0 .35809 37.211 32.87)">
  <polygon points="63.34 5.4 61 3.44 35.56 33.62 33.57 36 35.56 38.38 61 68.56 63.34 66.6 37.56 36" fill="#c1272d"/>
  <polygon points="28.31 38.38 56.65 72 58.99 70.04 30.3 36 58.99 1.96 56.65 0 28.31 33.62 2.34 2.67 0 4.64 26.32 36 0 67.36 2.34 69.33" fill="#1a1a1a"/>
 </g>
</svg>

<svg width="92" height="92" viewBox="0 0 92 92" fill="none" xmlns="http://www.w3.org/2000/svg">
<rect width="92" height="92" fill="#2970FF"/>
<path d="M48.415 15.0229C48.415 23.2591 48.415 68.3524 48.415 76.52C46.6304 76.52 50.3596 76.52 43.4732 76.52C30.5012 76.52 20 62.7472 20 45.7714C20 28.7957 30.5012 15.0229 43.4732 15.0229C56.4453 15.0229 44.8459 15.0229 48.415 15.0229Z" fill="white"/>
<path d="M23.7974 62.4955C24.1634 63.2505 24.5752 63.9826 24.987 64.6918H48.4145C48.4145 63.9826 48.4145 63.2505 48.4145 62.4955H23.7974Z" fill="#C4CBD2"/>
<path d="M21.4868 56.4555C21.6927 57.2105 21.9215 57.9426 22.196 58.6518H48.4375C48.4375 57.9197 48.4375 57.1876 48.4375 56.4555H21.4868Z" fill="#C4CBD2"/>
<path d="M20.2739 50.4156C20.3654 51.1478 20.457 51.8799 20.5942 52.612H48.4143C48.4143 51.8799 48.4143 51.1478 48.4143 50.4156H20.2739Z" fill="#C4CBD2"/>
<path d="M48.4146 75.3988C48.4146 74.7811 48.4146 74.049 48.4146 73.2025H32.9031C34.2758 74.1176 35.74 74.8498 37.25 75.3988H48.4146Z" fill="#C4CBD2"/>
<path d="M27.7327 68.5353C28.3961 69.3131 29.0825 70.0453 29.8146 70.7316H48.4376C48.4376 70.0453 48.4376 69.3131 48.4376 68.5353H27.7327Z" fill="#C4CBD2"/>
<path d="M22.3788 32.3188C22.1043 33.028 21.8755 33.7601 21.6467 34.5151H48.4373C48.4373 33.783 48.4373 33.0509 48.4373 32.3188H22.3788Z" fill="#C4CBD2"/>
<path d="M39.0574 15.572C37.2042 16.0295 35.4426 16.7845 33.7725 17.7683H48.4146C48.4146 16.9218 48.4146 16.1668 48.4146 15.572H39.0574Z" fill="#C4CBD2"/>
<path d="M30.4095 20.239C29.6316 20.9253 28.8995 21.6574 28.2131 22.4353H48.4376C48.4376 21.6574 48.4376 20.9253 48.4376 20.239H30.4095Z" fill="#C4CBD2"/>
<path d="M20.7087 38.336C20.5714 39.0681 20.457 39.8002 20.3655 40.5323H48.4373C48.4373 39.8002 48.4373 39.0681 48.4373 38.336H20.7087Z" fill="#C4CBD2"/>
<path d="M25.3306 26.2791C24.8959 26.9883 24.4612 27.7204 24.0723 28.4754H48.4149C48.4149 27.7204 48.4149 26.9883 48.4149 26.2791H25.3306Z" fill="#C4CBD2"/>
<path d="M20.0458 44.3757C20.023 44.8333 20.0229 45.2909 20.0229 45.7484C20.0229 46.023 20.0229 46.2975 20.0229 46.5721H48.415C48.415 45.8399 48.415 45.1078 48.415 44.3757H20.0458Z" fill="#C4CBD2"/>
<path d="M48.5518 76.4971C61.5158 76.4971 72.0251 62.7305 72.0251 45.7486C72.0251 28.7666 61.5158 15 48.5518 15C35.5879 15 25.0786 28.7666 25.0786 45.7486C25.0786 62.7305 35.5879 76.4971 48.5518 76.4971Z" fill="white"/>
<path d="M44.5947 40.0061L40.7511 34.2178H44.8921L51.0235 43.4607H46.8825C46.4936 43.4607 46.0818 43.5751 45.7157 43.8039C45.3497 44.0327 45.0065 44.3758 44.732 44.7877C44.4574 45.2223 44.2286 45.7257 44.0685 46.2747C43.9083 46.8238 43.8397 47.4187 43.8397 48.0135C43.8397 48.6083 43.9083 49.2032 44.0685 49.7523C44.2286 50.3013 44.4345 50.8047 44.732 51.2394C45.0065 51.674 45.3497 51.9943 45.7157 52.2231C46.0818 52.4519 46.4707 52.5663 46.8825 52.5663H48.4383L51.4582 57.1191H46.8825C46.0818 57.1191 45.281 56.8903 44.526 56.4328C43.7711 55.9752 43.1076 55.2888 42.5356 54.4423C41.9637 53.5958 41.5061 52.5663 41.2087 51.4453C40.9113 50.3242 40.7511 49.1117 40.7511 47.8991C40.7054 46.1146 41.0485 44.3758 41.7578 42.9345C42.4441 41.516 43.4508 40.4865 44.5947 40.0061Z" fill="#2970FF"/>
<path d="M55.1876 51.4908L58.9854 57.2791H54.8902L48.8046 48.0362H52.8998C53.2887 48.0362 53.6777 47.9218 54.0437 47.693C54.4098 47.4642 54.7301 47.1211 55.0275 46.7093C55.302 46.2746 55.5308 45.7712 55.6681 45.2222C55.8282 44.6731 55.8969 44.0782 55.8969 43.4834C55.8969 42.8886 55.8282 42.2937 55.6681 41.7446C55.5079 41.1956 55.302 40.6922 55.0275 40.2576C54.7529 39.8229 54.4098 39.5026 54.0437 39.2738C53.6777 39.045 53.2887 38.9306 52.8998 38.9306H51.3669L48.3699 34.2405H52.9227C53.7234 34.2405 54.5242 34.4693 55.2563 34.9269C55.9884 35.3845 56.6747 36.0708 57.2238 36.9402C57.7958 37.8096 58.2305 38.8162 58.5508 39.9373C58.8482 41.0583 59.0083 42.2709 59.0083 43.4834C59.0541 45.2679 58.7109 47.0296 58.0017 48.4938C57.2924 49.9351 56.3087 50.9875 55.1876 51.4908Z" fill="#2970FF"/>
</svg>
